X: 25629
T: Martin Connolly's
R: hornpipe
M: 4/4
K: Dmajor
fg|:af bf af ef|de fd (3BcB AB|df af gf ed|B2 e2 e2 fg|
af bf af ef|de fd (3BcB AB|de fg af df|1 (3efe dc d2 fg:|2 (3efe dc d2za||
|:fA (3ABA fA (3ABA|de fd B2 A2|df af gf ed|B2 e2 e2za|
fA (3ABA fA (3ABA|de fd B2 AB|de fg af df|1 (3efe dc d2za:|2 (3efe dc d2||

